assets/images/vector/icons/clipboard_check_icon.svg

<svg fill="none" height="60" viewBox="0 0 49 60" width="49" xmlns="http://www.w3.org/2000/svg"><g stroke="#111" stroke-linecap="round" stroke-linejoin="round" stroke-width="10"><path d="m15 9.16675h-3.3333c-3.68337 0-6.6667 2.98335-6.6667 6.66665v31.6667c0 3.6833 2.98333 6.6666 6.6667 6.6666h25c3.6833 0 6.6666-2.9833 6.6666-6.6666v-31.6667c0-3.6833-2.9833-6.66665-6.6666-6.66665h-3.3334"/><path d="m30 4.16675h-11.6667c-1.8409 0-3.3333 1.49238-3.3333 3.33333v3.33332c0 1.841 1.4924 3.3333 3.3333 3.3333h11.6667c1.841 0 3.3333-1.4923 3.3333-3.3333v-3.33332c0-1.84095-1.4923-3.33333-3.3333-3.33333z"/><path d="m15 34.1667 5.8333 6.6667 12.5-16.6667"/></g></svg>

<svg width="49" height="60" viewBox="0 0 49 60" fill="none" xmlns="http://www.w3.org/2000/svg">
<path d="M15 9.16675H11.6667C7.98333 9.16675 5 12.1501 5 15.8334V47.5001C5 51.1834 7.98333 54.1667 11.6667 54.1667H36.6667C40.35 54.1667 43.3333 51.1834 43.3333 47.5001V15.8334C43.3333 12.1501 40.35 9.16675 36.6667 9.16675H33.3333" stroke="#111111" stroke-width="10" stroke-linecap="round" stroke-linejoin="round"/>
<path d="M30 4.16675H18.3333C16.4924 4.16675 15 5.65913 15 7.50008V10.8334C15 12.6744 16.4924 14.1667 18.3333 14.1667H30C31.841 14.1667 33.3333 12.6744 33.3333 10.8334V7.50008C33.3333 5.65913 31.841 4.16675 30 4.16675Z" stroke="#111111" stroke-width="10" stroke-linecap="round" stroke-linejoin="round"/>
<path d="M15 34.1667L20.8333 40.8334L33.3333 24.1667" stroke="#111111" stroke-width="10" stroke-linecap="round" stroke-linejoin="round"/>
</svg>
